X:1
T:Going Home
C:arr. Pipe Major Donald MacLeod
L:1/4
Q:1/4=56
M:2/4
I:linebreak $
K:D
e2 |
{/g} c/2e/2{/A} e |{/gcd} c/2{/e}B/2{/G} A |$
{/g} B/2{/GdG}c/2{/g} e/2c/2 |{/gcd} B2 |$
{/g} c/2e/2{/A} e |{/gcd} c/2{/e}B/2{/G} A |$
{/g} B/2{/GdG}c/2{/gBd} B/2{/e}A/2 |{/GAG} A2 |$
{/g} f/2a/2{/g} a |{/f} g/2e/2{/g} f |$ 
{/g} f/2a/2 g/2e/2 |{/g} f2 |$
{/g} f/2a/2{/g} a |{/f} g/2e/2{/g} f |$
{/g} f/2a/2 g/2e/2 |{/g} f2 |$
{/g} c/2e/2{/A} e |{/gcd} c/2{/e}B/2{/G} A |$
{/g} B/2{/GdG}c/2{/g} e/2c/2 |{/gcd} B2 |$
{/g} c/2e/2{/A} e |{/gcd} c/2{/e}B/2{/G} A |$ 
{/g} B/2{/GdG}c/2{/gBd} B/2{/e}A/2 |{/GAG} A |] 


